.forestry/content/images/pipe.svg

<svg enable-background="new 0 0 105 77" viewBox="0 0 105 77" xmlns="http://www.w3.org/2000/svg"><g fill="#fff"><path d="m38.1 63.6c-14.1 0-25.5-11.4-25.5-25.5s11.4-25.5 25.5-25.5 25.5 11.4 25.5 25.5-11.4 25.5-25.5 25.5zm0-48c-12.4 0-22.5 10.1-22.5 22.5s10.1 22.5 22.5 22.5 22.5-10.1 22.5-22.5c0-12.5-10.1-22.5-22.5-22.5z"/><path d="m38.1 75.6c-20.7 0-37.5-16.8-37.5-37.5s16.8-37.5 37.5-37.5c3.3 0 6.6.4 9.9 1.3l.3.1.5.1c.2.1.4.1.6.2l40 11.9c9.2 3.6 15.2 12.4 15.2 22.3 0 9.2-5.1 17.4-13.4 21.5l-.2.1-38 14.3c-1.3.5-2.5 1-3.7 1.4-3.6 1.2-7.4 1.8-11.2 1.8zm0-72c-19 0-34.5 15.4-34.5 34.5s15.5 34.5 34.5 34.5c3.5 0 6.9-.5 10.2-1.5l3.6-1.3c12.6-5.5 20.7-17.9 20.7-31.6 0-15.1-9.7-28.3-24-32.9l-.8-.2c-3.2-1.1-6.4-1.5-9.7-1.5zm25.6 7.1c7.6 7.1 11.9 17.1 11.9 27.4 0 9.4-3.5 18.5-10 25.4l-2 1.8 26.4-9.9c7.2-3.6 11.6-10.8 11.6-18.8 0-8.7-5.2-16.3-13.3-19.5l-27-8.1z"/></g></svg>

<?xml version="1.0" encoding="UTF-8"?> <!-- Generator: Adobe Illustrator 23.0.2, SVG Export Plug-In . SVG Version: 6.00 Build 0) --> <svg xmlns="http://www.w3.org/2000/svg" xmlns:xlink="http://www.w3.org/1999/xlink" id="Layer_1" x="0px" y="0px" viewBox="0 0 105 77" style="enable-background:new 0 0 105 77;" xml:space="preserve"> <style type="text/css"> .st0{fill:#FFFFFF;} </style> <title>0733F570-DC0E-4354-8ED6-8C214524DD17</title> <desc>Created with sketchtool.</desc> <g> <path class="st0" d="M38.1,63.6c-14.1,0-25.5-11.4-25.5-25.5s11.4-25.5,25.5-25.5S63.6,24,63.6,38.1S52.2,63.6,38.1,63.6z M38.1,15.6c-12.4,0-22.5,10.1-22.5,22.5c0,12.4,10.1,22.5,22.5,22.5s22.5-10.1,22.5-22.5C60.6,25.6,50.5,15.6,38.1,15.6z"></path> <path class="st0" d="M38.1,75.6c-20.7,0-37.5-16.8-37.5-37.5S17.4,0.6,38.1,0.6c3.3,0,6.6,0.4,9.9,1.3L48.3,2l0.5,0.1 c0.2,0.1,0.4,0.1,0.6,0.2l40,11.9c9.2,3.6,15.2,12.4,15.2,22.3c0,9.2-5.1,17.4-13.4,21.5l-0.2,0.1l-38,14.3c-1.3,0.5-2.5,1-3.7,1.4 l0,0C45.7,75,41.9,75.6,38.1,75.6z M38.1,3.6C19.1,3.6,3.6,19,3.6,38.1s15.5,34.5,34.5,34.5c3.5,0,6.9-0.5,10.2-1.5l3.6-1.3 c12.6-5.5,20.7-17.9,20.7-31.6c0-15.1-9.7-28.3-24-32.9l-0.8-0.2C44.6,4,41.4,3.6,38.1,3.6z M63.7,10.7 c7.6,7.1,11.9,17.1,11.9,27.4c0,9.4-3.5,18.5-10,25.4l-2,1.8L90,55.4c7.2-3.6,11.6-10.8,11.6-18.8c0-8.7-5.2-16.3-13.3-19.5 l-27-8.1L63.7,10.7z"></path> </g> </svg>
